X: 32305
T: Pigeon On The Gate, The
R: reel
M: 4/4
K: Amixolydian
Bd|eA~A2 egfd|((3efe) ^dg edBA|G3g dGBA|Ggeg dGBd|
eA~A2 EABd|((3efe) ^dg edBA|GdBd gbaf|gedB A2:|
ag|eaae aba^g|ea~a2 c'aag|eddc dbaf|((3gag) fa gafg|
eaae aba^g|ea~a2 c'aag|eddc dbaf|gedB A2:|

